res/skins/LateNight/palemoon/buttons/btn__keylock.svg

<?xml version="1.0" encoding="UTF-8" standalone="no"?>
<svg
   xmlns:dc="http://purl.org/dc/elements/1.1/"
   xmlns:cc="http://creativecommons.org/ns#"
   xmlns:rdf="http://www.w3.org/1999/02/22-rdf-syntax-ns#"
   xmlns:svg="http://www.w3.org/2000/svg"
   xmlns="http://www.w3.org/2000/svg"
   viewBox="0 0 21 18"
   version="1.1"
   height="18"
   width="21"
   id="svg2">
  <metadata
     id="metadata8">
    <rdf:RDF>
      <cc:Work
         rdf:about="">
        <dc:format>image/svg+xml</dc:format>
        <dc:type
           rdf:resource="http://purl.org/dc/dcmitype/StillImage" />
        <dc:title></dc:title>
      </cc:Work>
    </rdf:RDF>
  </metadata>
  <defs
     id="defs6" />
  <path
     id="rect4195"
     style="fill:#3d3d3c;fill-opacity:1;stroke:none;stroke-opacity:1"
     d="m 10,10 c 0,1 0,2 0,3 0.333333,0 0.666667,0 1,0 0,-1 0,-2 0,-3 -0.333333,0 -0.666667,0 -1,0 z M 4,8 c 4.3333333,0 8.666667,0 13,0 0,2.333333 0,4.666667 0,7 -4.333333,0 -8.6666667,0 -13,0 0,-2.333333 0,-4.666667 0,-7 z" />
  <path
     id="path1060"
     style="fill:#3d3d3c;fill-opacity:1;stroke:none;stroke-width:1.70255;stroke-linecap:round;stroke-linejoin:round;stroke-miterlimit:4;stroke-dasharray:none;stroke-opacity:1"
     d="M 10.5 2.5 C 9.1432002 2.5 7.9402841 3.1128036 7.1152344 4.0625 L 8.6191406 5.3691406 C 9.0775198 4.8408028 9.7456226 4.5 10.5 4.5 C 11.880712 4.5 13 5.6192881 13 7 L 13 8 L 15 8 L 15 7 C 15 4.5147186 12.985281 2.5 10.5 2.5 z " />
</svg>

<svg width="21" height="18" version="1.1" viewBox="0 0 21 18" xmlns="http://www.w3.org/2000/svg">
  <path d="m10 10v3h1v-3h-1zm-6-2h13v7h-13v-7z" fill="#3d3d3c"/>
  <path d="m10.5 2.5c-1.3568 0-2.5597 0.6128-3.3848 1.5625l1.5039 1.3066c0.45838-0.52834 1.1265-0.86914 1.8809-0.86914 1.3807 0 2.5 1.1193 2.5 2.5v1h2v-1c0-2.4853-2.0147-4.5-4.5-4.5z" fill="#3d3d3c"/>
</svg>
